X:1
T:James Gibb editions
T:En gratulemur - Ravanello
T:#
%%score [ 1 2 3 ]
L:1/8
Q:1/4=104
M:4/4
K:F
V:1 treble nm="Soprano I"
V:2 treble nm="Soprano II"
V:3 treble nm="Alto I" snm="A"
V:1
"^En gratulemur, op.66/21""^Oreste Ravanello\n (1871-1938)""^vivo"!f! A2 GF G2 A2 | F2 E2"^," D4 | %2
w: En gra- tu- le- mur|ho- di- e|
 A2 d2 c2 ff |[M:4/4] f2 e2"^," f4 | f2 ed c2 d2 | e2 f2"^," d4 | %6
w: Chri- sto re- gi ju-|cun- di- us,|in cu- jus au- la|glo- ri- ae|
 d2 cB[Q:1/4=102] A2"^rall."[Q:1/4=98] d2 |[Q:1/4=95] d2[Q:1/4=91] ^c2[Q:1/4=90] !fermata!d4 || %8
w: iam ju- bi- lat An-|to- ni- us.|
!f! (d4 B4) | !fermata!A8 |] %10
w: A\- *|men.|
V:2
!f! A2 GF G2 A2 | F2 E2"^," D4 | F3 G A2 AA |[M:4/4] G2 G2"^," A4 | A2 AB A2 B2 | G2 A2"^," B4 | %6
w: En gra- tu- le- mur|ho- di- e|Chri- sto re- gi ju-|cun- di- us,|in cu- jus au- la|glo- ri- ae|
 F2 EE F2 F2 | E2 E2 !fermata!F4 ||!f! (F4 G4- | G2 ^FE) !fermata!F4 |] %10
w: iam ju- bi- lat An-|to- ni- us.|A\- *|* * * men.|
V:3
!f! A2 GF G2 A2 | F2 E2"^," D4 | D2 B,2 F2 FF |[M:4/4] C2 C2"^," F4 | D2 CB, F2 B,2 | %5
w: En gra- tu- le- mur|ho- di- e|Chri- sto re- gi ju-|cun- di- us,|in cu- jus au- la|
 C2 F2"^," B,4 | B,2 CC D2 G,2 | A,2 A,2 !fermata!D4 ||!f! (B,4 G,4) | !fermata!D8 |] %10
w: glo- ri- ae|iam ju- bi- lat An-|to- ni- us.|A\- *|men.|

